images/50093310.svg

<?xml version="1.0" encoding="UTF-8"?>
<svg xmlns="http://www.w3.org/2000/svg" xmlns:xlink="http://www.w3.org/1999/xlink" width="300pt" height="300pt" viewBox="0 0 300 300" version="1.1">
<defs>
<g>
<symbol overflow="visible" id="glyph0-0">
<path style="stroke:none;" d="M 0.453125 1.59375 L 0.453125 -6.34375 L 4.953125 -6.34375 L 4.953125 1.59375 Z M 0.953125 1.09375 L 4.453125 1.09375 L 4.453125 -5.84375 L 0.953125 -5.84375 Z M 0.953125 1.09375 "/>
</symbol>
<symbol overflow="visible" id="glyph0-1">
<path style="stroke:none;" d="M 3.546875 -5.953125 C 2.898438 -5.953125 2.382812 -5.710938 2 -5.234375 C 1.625 -4.753906 1.4375 -4.101562 1.4375 -3.28125 C 1.4375 -2.445312 1.625 -1.789062 2 -1.3125 C 2.382812 -0.832031 2.898438 -0.59375 3.546875 -0.59375 C 4.191406 -0.59375 4.703125 -0.832031 5.078125 -1.3125 C 5.453125 -1.789062 5.640625 -2.445312 5.640625 -3.28125 C 5.640625 -4.101562 5.453125 -4.753906 5.078125 -5.234375 C 4.703125 -5.710938 4.191406 -5.953125 3.546875 -5.953125 Z M 3.546875 -6.6875 C 4.460938 -6.6875 5.195312 -6.375 5.75 -5.75 C 6.300781 -5.132812 6.578125 -4.3125 6.578125 -3.28125 C 6.578125 -2.238281 6.300781 -1.410156 5.75 -0.796875 C 5.195312 -0.179688 4.460938 0.125 3.546875 0.125 C 2.617188 0.125 1.878906 -0.179688 1.328125 -0.796875 C 0.773438 -1.410156 0.5 -2.238281 0.5 -3.28125 C 0.5 -4.3125 0.773438 -5.132812 1.328125 -5.75 C 1.878906 -6.375 2.617188 -6.6875 3.546875 -6.6875 Z M 3.546875 -6.6875 "/>
</symbol>
<symbol overflow="visible" id="glyph0-2">
<path style="stroke:none;" d="M 0.890625 -6.5625 L 1.765625 -6.5625 L 1.765625 -3.875 L 5 -3.875 L 5 -6.5625 L 5.890625 -6.5625 L 5.890625 0 L 5 0 L 5 -3.125 L 1.765625 -3.125 L 1.765625 0 L 0.890625 0 Z M 0.890625 -6.5625 "/>
</symbol>
<symbol overflow="visible" id="glyph0-3">
<path style="stroke:none;" d="M 0.890625 -6.5625 L 2.078125 -6.5625 L 4.984375 -1.078125 L 4.984375 -6.5625 L 5.84375 -6.5625 L 5.84375 0 L 4.65625 0 L 1.75 -5.484375 L 1.75 0 L 0.890625 0 Z M 0.890625 -6.5625 "/>
</symbol>
<symbol overflow="visible" id="glyph1-0">
<path style="stroke:none;" d="M 0.40625 1.421875 L 0.40625 -5.640625 L 4.40625 -5.640625 L 4.40625 1.421875 Z M 0.84375 0.96875 L 3.953125 0.96875 L 3.953125 -5.1875 L 0.84375 -5.1875 Z M 0.84375 0.96875 "/>
</symbol>
<symbol overflow="visible" id="glyph1-1">
<path style="stroke:none;" d="M 1.53125 -0.671875 L 4.296875 -0.671875 L 4.296875 0 L 0.59375 0 L 0.59375 -0.671875 C 0.882812 -0.972656 1.289062 -1.382812 1.8125 -1.90625 C 2.332031 -2.4375 2.65625 -2.773438 2.78125 -2.921875 C 3.039062 -3.203125 3.21875 -3.441406 3.3125 -3.640625 C 3.414062 -3.835938 3.46875 -4.03125 3.46875 -4.21875 C 3.46875 -4.53125 3.359375 -4.785156 3.140625 -4.984375 C 2.921875 -5.179688 2.640625 -5.28125 2.296875 -5.28125 C 2.046875 -5.28125 1.78125 -5.234375 1.5 -5.140625 C 1.226562 -5.054688 0.9375 -4.925781 0.625 -4.75 L 0.625 -5.546875 C 0.945312 -5.679688 1.242188 -5.78125 1.515625 -5.84375 C 1.796875 -5.90625 2.050781 -5.9375 2.28125 -5.9375 C 2.882812 -5.9375 3.363281 -5.785156 3.71875 -5.484375 C 4.082031 -5.179688 4.265625 -4.78125 4.265625 -4.28125 C 4.265625 -4.039062 4.21875 -3.8125 4.125 -3.59375 C 4.03125 -3.375 3.867188 -3.117188 3.640625 -2.828125 C 3.566406 -2.753906 3.351562 -2.535156 3 -2.171875 C 2.65625 -1.816406 2.164062 -1.316406 1.53125 -0.671875 Z M 1.53125 -0.671875 "/>
</symbol>
<symbol overflow="visible" id="glyph1-2">
<path style="stroke:none;" d="M 3.6875 -5.015625 L 3.6875 -2.84375 L 5.859375 -2.84375 L 5.859375 -2.171875 L 3.6875 -2.171875 L 3.6875 0 L 3.03125 0 L 3.03125 -2.171875 L 0.84375 -2.171875 L 0.84375 -2.84375 L 3.03125 -2.84375 L 3.03125 -5.015625 Z M 3.6875 -5.015625 "/>
</symbol>
</g>
</defs>
<g id="surface3889">
<rect x="0" y="0" width="300" height="300" style="fill:rgb(100%,100%,100%);fill-opacity:1;stroke:none;"/>
<path style="fill:none;stroke-width:1.2;stroke-linecap:butt;stroke-linejoin:miter;stroke:rgb(0%,0%,0%);stroke-opacity:1;stroke-miterlimit:10;" d="M 128.476562 132.082031 L 127.945312 123.3125 "/>
<path style="fill:none;stroke-width:1.2;stroke-linecap:butt;stroke-linejoin:miter;stroke:rgb(100%,0%,0%);stroke-opacity:1;stroke-miterlimit:10;" d="M 127.945312 123.3125 L 127.414062 114.539062 "/>
<path style="fill:none;stroke-width:1.2;stroke-linecap:butt;stroke-linejoin:miter;stroke:rgb(0%,0%,0%);stroke-opacity:1;stroke-miterlimit:10;" d="M 124.347656 132.332031 L 123.816406 123.5625 "/>
<path style="fill:none;stroke-width:1.2;stroke-linecap:butt;stroke-linejoin:miter;stroke:rgb(100%,0%,0%);stroke-opacity:1;stroke-miterlimit:10;" d="M 123.816406 123.5625 L 123.285156 114.789062 "/>
<path style="fill:none;stroke-width:1.2;stroke-linecap:butt;stroke-linejoin:miter;stroke:rgb(0%,0%,0%);stroke-opacity:1;stroke-miterlimit:10;" d="M 126.414062 132.207031 L 111.75 141.902344 "/>
<path style="fill:none;stroke-width:1.2;stroke-linecap:butt;stroke-linejoin:miter;stroke:rgb(0%,0%,100%);stroke-opacity:1;stroke-miterlimit:10;" d="M 142.136719 140.0625 L 134.273438 136.136719 "/>
<path style="fill:none;stroke-width:1.2;stroke-linecap:butt;stroke-linejoin:miter;stroke:rgb(0%,0%,0%);stroke-opacity:1;stroke-miterlimit:10;" d="M 134.273438 136.136719 L 126.414062 132.207031 "/>
<path style=" stroke:none;fill-rule:nonzero;fill:rgb(100%,100%,100%);fill-opacity:1;" d="M 121.351562 109.164062 L 129.351562 109.164062 L 129.351562 120.164062 L 121.351562 120.164062 Z M 121.351562 109.164062 "/>
<g style="fill:rgb(100%,0%,0%);fill-opacity:1;">
  <use xlink:href="#glyph0-1" x="121.351562" y="117.827148"/>
</g>
<path style="fill:none;stroke-width:1;stroke-linecap:butt;stroke-linejoin:miter;stroke:rgb(0%,0%,0%);stroke-opacity:1;stroke-miterlimit:10;" d="M 111.75 141.902344 L 111.75 141.902344 M 109.339844 140.113281 L 108.875 141.046875 M 106.929688 138.328125 L 105.996094 140.195312 M 104.519531 136.542969 L 103.121094 139.339844 M 102.109375 134.753906 L 100.246094 138.488281 M 99.699219 132.96875 L 97.371094 137.632812 M 97.410156 131.273438 L 94.640625 136.824219 "/>
<path style="fill:none;stroke-width:1.2;stroke-linecap:butt;stroke-linejoin:miter;stroke:rgb(0%,0%,0%);stroke-opacity:1;stroke-miterlimit:10;" d="M 111.75 141.902344 L 112.28125 150.671875 "/>
<path style="fill:none;stroke-width:1.2;stroke-linecap:butt;stroke-linejoin:miter;stroke:rgb(100%,0%,0%);stroke-opacity:1;stroke-miterlimit:10;" d="M 112.28125 150.671875 L 112.8125 159.445312 "/>
<path style="fill:none;stroke-width:1.2;stroke-linecap:butt;stroke-linejoin:miter;stroke:rgb(0%,0%,0%);stroke-opacity:1;stroke-miterlimit:10;" d="M 96.023438 134.046875 L 94.964844 116.503906 "/>
<path style="fill:none;stroke-width:1.2;stroke-linecap:butt;stroke-linejoin:miter;stroke:rgb(0%,0%,0%);stroke-opacity:1;stroke-miterlimit:10;" d="M 91.789062 132.542969 L 90.941406 118.507812 "/>
<path style="fill:none;stroke-width:1.2;stroke-linecap:butt;stroke-linejoin:miter;stroke:rgb(0%,0%,0%);stroke-opacity:1;stroke-miterlimit:10;" d="M 81.363281 143.738281 L 96.023438 134.046875 "/>
<path style="fill:none;stroke-width:1.2;stroke-linecap:butt;stroke-linejoin:miter;stroke:rgb(0%,0%,0%);stroke-opacity:1;stroke-miterlimit:10;" d="M 94.964844 116.503906 L 79.238281 108.652344 "/>
<path style="fill:none;stroke-width:1.2;stroke-linecap:butt;stroke-linejoin:miter;stroke:rgb(0%,0%,0%);stroke-opacity:1;stroke-miterlimit:10;" d="M 79.238281 108.652344 L 64.574219 118.34375 "/>
<path style="fill:none;stroke-width:1.2;stroke-linecap:butt;stroke-linejoin:miter;stroke:rgb(0%,0%,0%);stroke-opacity:1;stroke-miterlimit:10;" d="M 80.050781 113.070312 L 68.320312 120.824219 "/>
<path style="fill:none;stroke-width:1.2;stroke-linecap:butt;stroke-linejoin:miter;stroke:rgb(0%,0%,0%);stroke-opacity:1;stroke-miterlimit:10;" d="M 64.574219 118.34375 L 65.636719 135.886719 "/>
<path style="fill:none;stroke-width:1.2;stroke-linecap:butt;stroke-linejoin:miter;stroke:rgb(0%,0%,0%);stroke-opacity:1;stroke-miterlimit:10;" d="M 65.636719 135.886719 L 81.363281 143.738281 "/>
<path style="fill:none;stroke-width:1.2;stroke-linecap:butt;stroke-linejoin:miter;stroke:rgb(0%,0%,0%);stroke-opacity:1;stroke-miterlimit:10;" d="M 69.058594 132.972656 L 81.636719 139.253906 "/>
<path style="fill:none;stroke-width:1.2;stroke-linecap:butt;stroke-linejoin:miter;stroke:rgb(0%,0%,0%);stroke-opacity:1;stroke-miterlimit:10;" d="M 65.636719 135.886719 L 50.976562 145.578125 "/>
<path style="fill:none;stroke-width:1.2;stroke-linecap:butt;stroke-linejoin:miter;stroke:rgb(0%,0%,0%);stroke-opacity:1;stroke-miterlimit:10;" d="M 50.976562 145.578125 L 43.113281 141.652344 "/>
<path style="fill:none;stroke-width:1.2;stroke-linecap:butt;stroke-linejoin:miter;stroke:rgb(0%,0%,100%);stroke-opacity:1;stroke-miterlimit:10;" d="M 43.113281 141.652344 L 35.25 137.726562 "/>
<path style="fill:none;stroke-width:1.2;stroke-linecap:butt;stroke-linejoin:miter;stroke:rgb(0%,0%,0%);stroke-opacity:1;stroke-miterlimit:10;" d="M 48.910156 145.703125 L 49.441406 154.476562 "/>
<path style="fill:none;stroke-width:1.2;stroke-linecap:butt;stroke-linejoin:miter;stroke:rgb(0%,0%,100%);stroke-opacity:1;stroke-miterlimit:10;" d="M 49.441406 154.476562 L 49.972656 163.25 "/>
<path style="fill:none;stroke-width:1.2;stroke-linecap:butt;stroke-linejoin:miter;stroke:rgb(0%,0%,0%);stroke-opacity:1;stroke-miterlimit:10;" d="M 53.039062 145.453125 L 53.570312 154.226562 "/>
<path style="fill:none;stroke-width:1.2;stroke-linecap:butt;stroke-linejoin:miter;stroke:rgb(0%,0%,100%);stroke-opacity:1;stroke-miterlimit:10;" d="M 53.570312 154.226562 L 54.101562 163 "/>
<path style=" stroke:none;fill-rule:nonzero;fill:rgb(100%,100%,100%);fill-opacity:1;" d="M 16.25 129.726562 L 35.25 129.726562 L 35.25 145.726562 L 16.25 145.726562 Z M 16.25 129.726562 "/>
<g style="fill:rgb(0%,0%,100%);fill-opacity:1;">
  <use xlink:href="#glyph0-2" x="16.25" y="138.389648"/>
</g>
<g style="fill:rgb(0%,0%,100%);fill-opacity:1;">
  <use xlink:href="#glyph1-1" x="23.264648" y="143.272461"/>
</g>
<g style="fill:rgb(0%,0%,100%);fill-opacity:1;">
  <use xlink:href="#glyph0-3" x="28.214844" y="138.389648"/>
</g>
<path style=" stroke:none;fill-rule:nonzero;fill:rgb(100%,100%,100%);fill-opacity:1;" d="M 39.035156 153.625 L 65.035156 153.625 L 65.035156 172.625 L 39.035156 172.625 Z M 39.035156 153.625 "/>
<g style="fill:rgb(0%,0%,100%);fill-opacity:1;">
  <use xlink:href="#glyph0-3" x="39.035156" y="165.726562"/>
  <use xlink:href="#glyph0-2" x="46.012695" y="165.726562"/>
</g>
<g style="fill:rgb(0%,0%,100%);fill-opacity:1;">
  <use xlink:href="#glyph1-1" x="53.027344" y="170.609375"/>
</g>
<g style="fill:rgb(0%,0%,100%);fill-opacity:1;">
  <use xlink:href="#glyph1-2" x="57.977539" y="160.84375"/>
</g>
<path style="fill:none;stroke-width:1.2;stroke-linecap:butt;stroke-linejoin:miter;stroke:rgb(100%,0%,0%);stroke-opacity:1;stroke-miterlimit:10;" d="M 112.8125 159.445312 L 120.675781 163.371094 "/>
<path style="fill:none;stroke-width:1.2;stroke-linecap:butt;stroke-linejoin:miter;stroke:rgb(0%,0%,0%);stroke-opacity:1;stroke-miterlimit:10;" d="M 120.675781 163.371094 L 128.535156 167.296875 "/>
<path style=" stroke:none;fill-rule:nonzero;fill:rgb(100%,100%,100%);fill-opacity:1;" d="M 108.8125 153.945312 L 116.8125 153.945312 L 116.8125 164.945312 L 108.8125 164.945312 Z M 108.8125 153.945312 "/>
<g style="fill:rgb(100%,0%,0%);fill-opacity:1;">
  <use xlink:href="#glyph0-1" x="108.8125" y="162.608398"/>
</g>
<path style="fill:none;stroke-width:1.2;stroke-linecap:butt;stroke-linejoin:miter;stroke:rgb(0%,0%,0%);stroke-opacity:1;stroke-miterlimit:10;" d="M 128.535156 167.296875 L 129.597656 184.839844 "/>
<path style="fill:none;stroke-width:1.2;stroke-linecap:butt;stroke-linejoin:miter;stroke:rgb(0%,0%,0%);stroke-opacity:1;stroke-miterlimit:10;" d="M 128.535156 167.296875 L 143.199219 157.605469 "/>
<path style="fill:none;stroke-width:1.2;stroke-linecap:butt;stroke-linejoin:miter;stroke:rgb(0%,0%,0%);stroke-opacity:1;stroke-miterlimit:10;" d="M 132.285156 169.777344 L 144.015625 162.023438 "/>
<path style="fill:none;stroke-width:1.2;stroke-linecap:butt;stroke-linejoin:miter;stroke:rgb(0%,0%,0%);stroke-opacity:1;stroke-miterlimit:10;" d="M 129.597656 184.839844 L 145.324219 192.695312 "/>
<path style="fill:none;stroke-width:1.2;stroke-linecap:butt;stroke-linejoin:miter;stroke:rgb(0%,0%,0%);stroke-opacity:1;stroke-miterlimit:10;" d="M 133.019531 181.925781 L 145.597656 188.207031 "/>
<path style="fill:none;stroke-width:1.2;stroke-linecap:butt;stroke-linejoin:miter;stroke:rgb(0%,0%,0%);stroke-opacity:1;stroke-miterlimit:10;" d="M 145.324219 192.695312 L 159.988281 183.003906 "/>
<path style="fill:none;stroke-width:1.2;stroke-linecap:butt;stroke-linejoin:miter;stroke:rgb(0%,0%,0%);stroke-opacity:1;stroke-miterlimit:10;" d="M 159.988281 183.003906 L 158.925781 165.457031 "/>
<path style="fill:none;stroke-width:1.2;stroke-linecap:butt;stroke-linejoin:miter;stroke:rgb(0%,0%,0%);stroke-opacity:1;stroke-miterlimit:10;" d="M 155.753906 181.496094 L 154.902344 167.460938 "/>
<path style="fill:none;stroke-width:1.2;stroke-linecap:butt;stroke-linejoin:miter;stroke:rgb(0%,0%,0%);stroke-opacity:1;stroke-miterlimit:10;" d="M 143.199219 157.605469 L 158.925781 165.457031 "/>
<path style="fill:none;stroke-width:1.2;stroke-linecap:butt;stroke-linejoin:miter;stroke:rgb(0%,0%,0%);stroke-opacity:1;stroke-miterlimit:10;" d="M 143.199219 157.605469 L 142.667969 148.832031 "/>
<path style="fill:none;stroke-width:1.2;stroke-linecap:butt;stroke-linejoin:miter;stroke:rgb(0%,0%,100%);stroke-opacity:1;stroke-miterlimit:10;" d="M 142.667969 148.832031 L 142.136719 140.0625 "/>
<path style="fill:none;stroke-width:1.2;stroke-linecap:butt;stroke-linejoin:miter;stroke:rgb(0%,0%,100%);stroke-opacity:1;stroke-miterlimit:10;" d="M 142.136719 140.0625 L 149.46875 135.214844 "/>
<path style="fill:none;stroke-width:1.2;stroke-linecap:butt;stroke-linejoin:miter;stroke:rgb(0%,0%,0%);stroke-opacity:1;stroke-miterlimit:10;" d="M 149.46875 135.214844 L 156.800781 130.367188 "/>
<path style=" stroke:none;fill-rule:nonzero;fill:rgb(100%,100%,100%);fill-opacity:1;" d="M 139.136719 134.5625 L 146.136719 134.5625 L 146.136719 145.5625 L 139.136719 145.5625 Z M 139.136719 134.5625 "/>
<g style="fill:rgb(0%,0%,100%);fill-opacity:1;">
  <use xlink:href="#glyph0-3" x="139.136719" y="143.225586"/>
</g>
<path style="fill:none;stroke-width:1.2;stroke-linecap:butt;stroke-linejoin:miter;stroke:rgb(0%,0%,0%);stroke-opacity:1;stroke-miterlimit:10;" d="M 156.800781 130.367188 L 172.523438 138.222656 "/>
<path style="fill:none;stroke-width:1.2;stroke-linecap:butt;stroke-linejoin:miter;stroke:rgb(0%,0%,0%);stroke-opacity:1;stroke-miterlimit:10;" d="M 172.523438 138.222656 L 187.1875 128.53125 "/>
<path style="fill:none;stroke-width:1.2;stroke-linecap:butt;stroke-linejoin:miter;stroke:rgb(0%,0%,0%);stroke-opacity:1;stroke-miterlimit:10;" d="M 187.1875 128.53125 L 202.914062 136.382812 "/>
<path style="fill:none;stroke-width:1.2;stroke-linecap:butt;stroke-linejoin:miter;stroke:rgb(0%,0%,0%);stroke-opacity:1;stroke-miterlimit:10;" d="M 202.914062 136.382812 L 217.574219 126.691406 "/>
<path style="fill:none;stroke-width:1.2;stroke-linecap:butt;stroke-linejoin:miter;stroke:rgb(0%,0%,0%);stroke-opacity:1;stroke-miterlimit:10;" d="M 217.574219 126.691406 L 225.4375 130.617188 "/>
<path style="fill:none;stroke-width:1.2;stroke-linecap:butt;stroke-linejoin:miter;stroke:rgb(0%,0%,100%);stroke-opacity:1;stroke-miterlimit:10;" d="M 225.4375 130.617188 L 233.300781 134.542969 "/>
<path style="fill:none;stroke-width:1.2;stroke-linecap:butt;stroke-linejoin:miter;stroke:rgb(0%,0%,100%);stroke-opacity:1;stroke-miterlimit:10;" d="M 233.300781 134.542969 L 233.832031 143.3125 "/>
<path style="fill:none;stroke-width:1.2;stroke-linecap:butt;stroke-linejoin:miter;stroke:rgb(0%,0%,0%);stroke-opacity:1;stroke-miterlimit:10;" d="M 233.832031 143.3125 L 234.363281 152.085938 "/>
<path style="fill:none;stroke-width:1.2;stroke-linecap:butt;stroke-linejoin:miter;stroke:rgb(0%,0%,0%);stroke-opacity:1;stroke-miterlimit:10;" d="M 247.964844 124.851562 L 240.632812 129.695312 "/>
<path style="fill:none;stroke-width:1.2;stroke-linecap:butt;stroke-linejoin:miter;stroke:rgb(0%,0%,100%);stroke-opacity:1;stroke-miterlimit:10;" d="M 240.632812 129.695312 L 233.300781 134.542969 "/>
<path style=" stroke:none;fill-rule:nonzero;fill:rgb(100%,100%,100%);fill-opacity:1;" d="M 223.300781 127.042969 L 244.300781 127.042969 L 244.300781 142.042969 L 223.300781 142.042969 Z M 223.300781 127.042969 "/>
<g style="fill:rgb(0%,0%,100%);fill-opacity:1;">
  <use xlink:href="#glyph0-3" x="223.300781" y="139.144531"/>
  <use xlink:href="#glyph0-2" x="230.27832" y="139.144531"/>
</g>
<g style="fill:rgb(0%,0%,100%);fill-opacity:1;">
  <use xlink:href="#glyph1-2" x="237.292969" y="134.261719"/>
</g>
<path style="fill:none;stroke-width:1;stroke-linecap:butt;stroke-linejoin:miter;stroke:rgb(0%,0%,0%);stroke-opacity:1;stroke-miterlimit:10;" d="M 234.363281 152.085938 L 234.363281 152.085938 M 231.609375 153.28125 L 232.183594 154.152344 M 228.859375 154.476562 L 230.007812 156.214844 M 226.105469 155.667969 L 227.832031 158.277344 M 223.355469 156.863281 L 225.652344 160.34375 M 220.601562 158.058594 L 223.476562 162.40625 M 217.988281 159.191406 L 221.410156 164.367188 "/>
<path style="fill:none;stroke-width:1.2;stroke-linecap:butt;stroke-linejoin:miter;stroke:rgb(0%,0%,0%);stroke-opacity:1;stroke-miterlimit:10;" d="M 234.363281 152.085938 L 250.085938 159.9375 "/>
<path style="fill:none;stroke-width:1.2;stroke-linecap:butt;stroke-linejoin:miter;stroke:rgb(0%,0%,0%);stroke-opacity:1;stroke-miterlimit:10;" d="M 250.085938 159.9375 L 264.75 150.246094 "/>
<path style="fill:none;stroke-width:1.2;stroke-linecap:butt;stroke-linejoin:miter;stroke:rgb(0%,0%,0%);stroke-opacity:1;stroke-miterlimit:10;" d="M 264.75 150.246094 L 263.6875 132.703125 "/>
<path style="fill:none;stroke-width:1.2;stroke-linecap:butt;stroke-linejoin:miter;stroke:rgb(0%,0%,0%);stroke-opacity:1;stroke-miterlimit:10;" d="M 263.6875 132.703125 L 247.964844 124.851562 "/>
<path style=" stroke:none;fill-rule:nonzero;fill:rgb(0%,0%,0%);fill-opacity:1;" d="M 247.964844 124.851562 L 249.996094 107.117188 L 243.804688 107.492188 Z M 247.964844 124.851562 "/>
</g>
</svg>

<svg xmlns="http://www.w3.org/2000/svg" xmlns:xlink="http://www.w3.org/1999/xlink" width="300pt" height="300pt" viewBox="0 0 300 300"><defs><symbol overflow="visible"><path d="M.453 1.594v-7.938h4.5v7.938zm.5-.5h3.5v-6.938h-3.5zm0 0"/></symbol><symbol overflow="visible" id="a"><path d="M3.547-5.953c-.65 0-1.164.242-1.547.72-.375.48-.563 1.13-.563 1.952 0 .835.188 1.49.563 1.967.383.48.898.72 1.547.72.644 0 1.156-.24 1.53-.72.376-.476.564-1.132.564-1.968 0-.822-.187-1.474-.562-1.954-.375-.477-.887-.72-1.53-.72zm0-.734c.914 0 1.648.312 2.203.937.55.617.828 1.438.828 2.47 0 1.042-.277 1.87-.828 2.483-.555.617-1.29.922-2.203.922-.93 0-1.668-.305-2.22-.922C.774-1.41.5-2.237.5-3.28c0-1.033.273-1.853.828-2.47.55-.625 1.29-.938 2.22-.938zm0 0"/></symbol><symbol overflow="visible" id="b"><path d="M.89-6.563h.876v2.688H5v-2.688h.89V0H5v-3.125H1.766V0H.89zm0 0"/></symbol><symbol overflow="visible" id="d"><path d="M.89-6.563H2.08l2.906 5.485v-5.484h.86V0H4.656L1.75-5.484V0H.89zm0 0"/></symbol><symbol overflow="visible"><path d="M.406 1.422V-5.64h4V1.42zM.844.97h3.11v-6.157H.843zm0 0"/></symbol><symbol overflow="visible" id="c"><path d="M1.53-.672h2.767V0H.594v-.672c.29-.3.695-.71 1.22-1.234.518-.532.842-.867.967-1.016.26-.28.44-.52.533-.72.1-.194.156-.39.156-.577 0-.31-.11-.565-.33-.764-.218-.196-.5-.297-.843-.297-.25 0-.516.046-.797.14-.273.085-.563.214-.875.39v-.797c.32-.133.617-.234.89-.297.282-.062.536-.093.766-.093.603 0 1.083.152 1.44.453.362.304.546.703.546 1.203 0 .24-.047.468-.14.686-.095.22-.26.477-.485.766-.074.074-.288.293-.64.656-.344.356-.836.856-1.47 1.5zm0 0"/></symbol><symbol overflow="visible" id="e"><path d="M3.688-5.016v2.172h2.17v.672H3.69V0H3.03v-2.172H.845v-.672H3.03v-2.172zm0 0"/></symbol></defs><g><path fill="#fff" d="M0 0h300v300H0z"/><path d="M128.477 132.082l-.532-8.77" stroke-width="1.2" stroke="#000" stroke-miterlimit="10" fill="none"/><path d="M127.945 123.313l-.53-8.774" stroke-width="1.2" stroke="#f00" stroke-miterlimit="10" fill="none"/><path d="M124.348 132.332l-.532-8.77" stroke-width="1.2" stroke="#000" stroke-miterlimit="10" fill="none"/><path d="M123.816 123.563l-.53-8.774" stroke-width="1.2" stroke="#f00" stroke-miterlimit="10" fill="none"/><path d="M126.414 132.207l-14.664 9.695" stroke-width="1.2" stroke="#000" stroke-miterlimit="10" fill="none"/><path d="M142.137 140.063l-7.864-3.926" stroke-width="1.2" stroke="#00f" stroke-miterlimit="10" fill="none"/><path d="M134.273 136.137l-7.86-3.93" stroke-width="1.2" stroke="#000" stroke-miterlimit="10" fill="none"/><path d="M121.352 109.164h8v11h-8zm0 0" fill="#fff"/><use xlink:href="#a" x="121.352" y="117.827" fill="#f00"/><path d="M111.75 141.902m-2.41-1.79l-.465.935m-1.945-2.72l-.934 1.868m-1.476-3.652l-1.4 2.797m-1.01-4.586l-1.864 3.734m-.547-5.52l-2.33 4.665m.04-6.36l-2.77 5.55" stroke="#000" stroke-miterlimit="10" fill="none"/><path d="M111.75 141.902l.53 8.77" stroke-width="1.2" stroke="#000" stroke-miterlimit="10" fill="none"/><path d="M112.28 150.672l.532 8.773" stroke-width="1.2" stroke="#f00" stroke-miterlimit="10" fill="none"/><path d="M96.023 134.047l-1.058-17.543M91.79 132.543l-.85-14.035M81.363 143.738l14.66-9.69M94.965 116.504l-15.727-7.852M79.238 108.652l-14.664 9.692M80.05 113.07l-11.73 7.754M64.574 118.344l1.063 17.543M65.637 135.887l15.726 7.85M69.06 132.973l12.577 6.28M65.637 135.887l-14.66 9.69M50.977 145.578l-7.864-3.926" stroke-width="1.2" stroke="#000" stroke-miterlimit="10" fill="none"/><path d="M43.113 141.652l-7.863-3.925" stroke-width="1.2" stroke="#00f" stroke-miterlimit="10" fill="none"/><path d="M48.91 145.703l.53 8.774" stroke-width="1.2" stroke="#000" stroke-miterlimit="10" fill="none"/><path d="M49.44 154.477l.533 8.773" stroke-width="1.2" stroke="#00f" stroke-miterlimit="10" fill="none"/><path d="M53.04 145.453l.53 8.774" stroke-width="1.2" stroke="#000" stroke-miterlimit="10" fill="none"/><path d="M53.57 154.227l.532 8.773" stroke-width="1.2" stroke="#00f" stroke-miterlimit="10" fill="none"/><path d="M16.25 129.727h19v16h-19zm0 0" fill="#fff"/><use xlink:href="#b" x="16.25" y="138.39" fill="#00f"/><use xlink:href="#c" x="23.265" y="143.272" fill="#00f"/><use xlink:href="#d" x="28.215" y="138.39" fill="#00f"/><path d="M39.035 153.625h26v19h-26zm0 0" fill="#fff"/><g fill="#00f"><use xlink:href="#d" x="39.035" y="165.727"/><use xlink:href="#b" x="46.013" y="165.727"/></g><use xlink:href="#c" x="53.027" y="170.609" fill="#00f"/><use xlink:href="#e" x="57.978" y="160.844" fill="#00f"/><path d="M112.813 159.445l7.863 3.926" stroke-width="1.2" stroke="#f00" stroke-miterlimit="10" fill="none"/><path d="M120.676 163.37l7.86 3.927" stroke-width="1.2" stroke="#000" stroke-miterlimit="10" fill="none"/><path d="M108.813 153.945h8v11h-8zm0 0" fill="#fff"/><use xlink:href="#a" x="108.813" y="162.608" fill="#f00"/><path d="M128.535 167.297l1.063 17.543M128.535 167.297l14.664-9.692M132.285 169.777l11.73-7.754M129.598 184.84l15.726 7.855M133.02 181.926l12.578 6.28M145.324 192.695l14.664-9.69M159.988 183.004l-1.062-17.547M155.754 181.496l-.852-14.035M143.2 157.605l15.726 7.852M143.2 157.605l-.532-8.773" stroke-width="1.2" stroke="#000" stroke-miterlimit="10" fill="none"/><path d="M142.668 148.832l-.53-8.77M142.137 140.063l7.332-4.848" stroke-width="1.2" stroke="#00f" stroke-miterlimit="10" fill="none"/><path d="M149.47 135.215l7.33-4.848" stroke-width="1.2" stroke="#000" stroke-miterlimit="10" fill="none"/><path d="M139.137 134.563h7v11h-7zm0 0" fill="#fff"/><use xlink:href="#d" x="139.137" y="143.226" fill="#00f"/><path d="M156.8 130.367l15.723 7.856M172.523 138.223l14.665-9.692M187.188 128.53l15.726 7.853M202.914 136.383l14.66-9.692M217.574 126.69l7.863 3.927" stroke-width="1.2" stroke="#000" stroke-miterlimit="10" fill="none"/><path d="M225.438 130.617l7.863 3.926M233.3 134.543l.532 8.77" stroke-width="1.2" stroke="#00f" stroke-miterlimit="10" fill="none"/><path d="M233.832 143.313l.53 8.773M247.965 124.852l-7.332 4.843" stroke-width="1.2" stroke="#000" stroke-miterlimit="10" fill="none"/><path d="M240.633 129.695l-7.332 4.848" stroke-width="1.2" stroke="#00f" stroke-miterlimit="10" fill="none"/><path d="M223.3 127.043h21v15h-21zm0 0" fill="#fff"/><g fill="#00f"><use xlink:href="#d" x="223.301" y="139.145"/><use xlink:href="#b" x="230.278" y="139.145"/></g><use xlink:href="#e" x="237.293" y="134.262" fill="#00f"/><path d="M234.363 152.086m-2.754 1.195l.574.872m-3.325.325l1.148 1.738m-3.903-.547l1.727 2.61m-4.477-1.415l2.297 3.48m-5.05-2.284l2.875 4.346m-5.49-3.215l3.423 5.177" stroke="#000" stroke-miterlimit="10" fill="none"/><path d="M234.363 152.086l15.723 7.85M250.086 159.938l14.664-9.692M264.75 150.246l-1.063-17.543M263.688 132.703l-15.723-7.85" stroke-width="1.2" stroke="#000" stroke-miterlimit="10" fill="none"/><path d="M247.965 124.852l2.03-17.735-6.19.375zm0 0"/></g></svg>
